X: 23429
T: Leslie's March
R: jig
M: 6/8
K: Dmajor
|:d3 d3|dcB ABc|dcB AGF|A2F E2D|
e3 ede|fed eag|f2 e d2 A|def e2d:|
|:fed e A2|fed e A2|gfe f B2|gfe f B2|
fed e A2|fed eag|f2 e d2 A|def e2d:|
|:dfa dfa|dfa afd|egb egb|egb bge|
dfa dfa|dfa a2 g|fed d2 A|def e2d:|

